X:504
T: Da baoyunchuan
N: C1923
O: China,Hebei Anxin
S: IV, 42]
R: Xiaodiao]
M: 2/4
L: 1/16
K: E
c2c2c2c2 | e3cB4 | G2B2c2G2 | F4z4 |
B2B2B2B2 | e4G2F2 | E2F2G2E2 | F4F2G2 |
B2F2G2B2 | F2G2F2C2 | E6F2 | E4z4 |
F6G2 | B8 | c2e2A2G2 | F2G2E2C2 |
B2F2G2B2 | F2G2F2C2 | E6F2 | E4z4

@@@ Tune index: 7059
